images_sukapura_svg/cmd/sc_bringtofront.svg

<svg viewBox="0 0 16 16" xmlns="http://www.w3.org/2000/svg" xmlns:xlink="http://www.w3.org/1999/xlink"><linearGradient id="a" gradientUnits="userSpaceOnUse" x1="-2" x2="-2" y1="33" y2="29"><stop offset="0" stop-color="#f5f5f5"/><stop offset="1" stop-color="#fff"/></linearGradient>


     /&amp;amp;gt;
 <path d="m1 11v4h8.0000001v-4z" fill="#fff"/><path d="m6.949219 0c-.5263 0-.949219.422919-.949219.949219v4.101562c0 .5263.422919.949219.949219.949219h8.101562c.5263 0 .949219-.422919.949219-.949219v-4.101562c0-.5263-.422919-.949219-.949219-.949219zm.05078 1h8v4h-8z" fill="#98989d"/><path d="m7 1v4h8v-4z" fill="url(#a)"/><g transform="translate(-6 10)"><path d="m6.949219 0c-.5263 0-.949219.422919-.949219.949219v4.101562c0 .5263.422919.949219.949219.949219h8.101562c.5263 0 .949219-.422919.949219-.949219v-4.101562c0-.5263-.422919-.949219-.949219-.949219zm.05078 1h8v4h-8z" fill="#98989d"/><path d="m7 1v4h8v-4z" fill="url(#a)"/></g><path d="m13.1875 1.9921875c-.06408-.00409-.130083.0007826-.197266.0175781l-9.990234-.0097656c-.554 0-1.1343648.4625411-1 1l-.0097656 8.009766v2c0 .554.446 1 1 1l8.0097656-.009766h2c.554 0 1-.446 1-1l-.009766-9.9902344c0-.48475-.354145-.9889324-.802734-1.0175781zm-10.1875 1.0078125h10v10h-10z" fill="#e4b500"/><path d="m3 3h10v10h-10z" fill="#fc0"/></svg>

<?xml version="1.0" encoding="UTF-8" standalone="no"?>
<svg
   xmlns:dc="http://purl.org/dc/elements/1.1/"
   xmlns:cc="http://creativecommons.org/ns#"
   xmlns:rdf="http://www.w3.org/1999/02/22-rdf-syntax-ns#"
   xmlns:svg="http://www.w3.org/2000/svg"
   xmlns="http://www.w3.org/2000/svg"
   xmlns:xlink="http://www.w3.org/1999/xlink"
   xmlns:sodipodi="http://sodipodi.sourceforge.net/DTD/sodipodi-0.dtd"
   xmlns:inkscape="http://www.inkscape.org/namespaces/inkscape"
   viewBox="0 0 16 16"
   version="1.1"
   id="svg12"
   sodipodi:docname="sc_bringtofront.svg"
   inkscape:version="0.92.3 (unknown)"
   inkscape:export-filename="/home/rizmut/Dokumen/Rizmut/Github/libreoffice-style-sukapura/images_sukapura/cmd/sc_bringtofront.png"
   inkscape:export-xdpi="96"
   inkscape:export-ydpi="96"><metadata
   id="metadata18">
  <rdf:RDF>
    <cc:Work
       rdf:about="">
      <dc:format>image/svg+xml</dc:format>
      <dc:type
         rdf:resource="http://purl.org/dc/dcmitype/StillImage" />
      <dc:title></dc:title>
    </cc:Work>
  </rdf:RDF>
</metadata>
<defs
   id="defs16">
  <linearGradient
     gradientTransform="translate(-12,28)"
     y2="2"
     y1="16"
     x2="10"
     x1="10"
     gradientUnits="userSpaceOnUse"
     id="linearGradient1639">
    <stop
       id="stop1633"
       stop-color="#f5f5f5"
       offset="0" />
    <stop
       id="stop1637"
       stop-color="#fff"
       offset="1" />
  </linearGradient>
  <linearGradient
     inkscape:collect="always"
     xlink:href="#linearGradient1639"
     id="linearGradient854"
     x1="10"
     y1="5"
     x2="10"
     y2="1"
     gradientUnits="userSpaceOnUse" />
  <linearGradient
     inkscape:collect="always"
     xlink:href="#linearGradient1639"
     id="linearGradient866"
     gradientUnits="userSpaceOnUse"
     x1="10"
     y1="5"
     x2="10"
     y2="1" />
</defs>
<sodipodi:namedview
   pagecolor="#ffffff"
   bordercolor="#666666"
   borderopacity="1"
   objecttolerance="10"
   gridtolerance="10"
   guidetolerance="10"
   inkscape:pageopacity="0"
   inkscape:pageshadow="2"
   inkscape:window-width="1366"
   inkscape:window-height="706"
   id="namedview14"
   showgrid="true"
   inkscape:zoom="10.429825"
   inkscape:cx="9.4862087"
   inkscape:cy="12.987459"
   inkscape:window-x="0"
   inkscape:window-y="0"
   inkscape:window-maximized="1"
   inkscape:current-layer="svg12">
  <inkscape:grid
     type="xygrid"
     id="grid828"
     spacingx="0.5"
     spacingy="0.5"
     empspacing="2" />
</sodipodi:namedview>


     /&amp;gt;
 <g
   id="g928">
  <path
     id="path6"
     fill="#fff"
     d="m1 11v4h8.0000001v-4z" />
  <g
     id="g858">
    <path
       d="m6.949219 0c-.5263 0-.949219.422919-.949219.949219v4.101562c0 .5263.422919.949219.949219.949219h8.101562c.5263 0 .949219-.422919.949219-.949219v-4.101562c0-.5263-.422919-.949219-.949219-.949219zm.05078 1h8v4h-8z"
       fill="#808080"
       id="path8"
       style="fill:#98989d;fill-opacity:1" />
    <path
       d="m7 1v4h8v-4z"
       fill="#fff"
       id="path10"
       style="fill-opacity:1;fill:url(#linearGradient854)" />
  </g>
  <g
     transform="translate(-6,10)"
     id="g864">
    <path
       inkscape:connector-curvature="0"
       style="fill:#98989d;fill-opacity:1"
       id="path860"
       d="M 6.949219,0 C 6.422919,0 6,0.422919 6,0.949219 V 5.050781 C 6,5.577081 6.422919,6 6.949219,6 h 8.101562 C 15.577081,6 16,5.577081 16,5.050781 V 0.949219 C 16,0.422919 15.577081,0 15.050781,0 Z m 0.05078,1 h 8 v 4 h -8 z" />
    <path
       inkscape:connector-curvature="0"
       style="fill:url(#linearGradient866);fill-opacity:1"
       id="path862"
       d="m 7,1 v 4 h 8 V 1 Z" />
  </g>
  <g
     id="g878">
    <path
       style="fill:#e4b500;fill-opacity:1"
       d="M 13.1875 1.9921875 C 13.12342 1.9880975 13.057417 1.9929701 12.990234 2.0097656 L 3 2 C 2.446 2 1.8656352 2.4625411 2 3 L 1.9902344 11.009766 L 1.9902344 13.009766 C 1.9902344 13.563766 2.4362344 14.009766 2.9902344 14.009766 L 11 14 L 13 14 C 13.554 14 14 13.554 14 13 L 13.990234 3.0097656 C 13.990234 2.5250156 13.636089 2.0208332 13.1875 1.9921875 z M 3 3 L 13 3 L 13 13 L 3 13 L 3 3 z "
       id="path2" />
    <rect
       style="fill:#ffcc00;fill-opacity:1;stroke:none;stroke-opacity:1"
       id="rect871"
       width="10"
       height="10"
       x="3"
       y="3" />
  </g>
</g>
</svg>
